svg/shop_seafood-11.svg

<?xml version="1.0" encoding="UTF-8" standalone="no"?>
<svg
   xmlns:dc="http://purl.org/dc/elements/1.1/"
   xmlns:cc="http://creativecommons.org/ns#"
   xmlns:rdf="http://www.w3.org/1999/02/22-rdf-syntax-ns#"
   xmlns:svg="http://www.w3.org/2000/svg"
   xmlns="http://www.w3.org/2000/svg"
   xmlns:sodipodi="http://sodipodi.sourceforge.net/DTD/sodipodi-0.dtd"
   xmlns:inkscape="http://www.inkscape.org/namespaces/inkscape"
   xml:space="preserve"
   enable-background="new 0 0 580 580"
   viewBox="0 0 11 11"
   height="11"
   width="11"
   y="0px"
   x="0px"
   id="svg2"
   version="1.1"
   inkscape:version="0.91 r13725"
   sodipodi:docname="shop_seafood-11.svg"><sodipodi:namedview
     pagecolor="#ffffff"
     bordercolor="#666666"
     borderopacity="1"
     objecttolerance="10"
     gridtolerance="10"
     guidetolerance="10"
     inkscape:pageopacity="0"
     inkscape:pageshadow="2"
     inkscape:window-width="924"
     inkscape:window-height="480"
     id="namedview7"
     showgrid="false"
     fit-margin-top="0"
     fit-margin-left="0"
     fit-margin-right="0"
     fit-margin-bottom="0"
     inkscape:zoom="16.857143"
     inkscape:cx="5.5"
     inkscape:cy="5.5"
     inkscape:window-x="0"
     inkscape:window-y="27"
     inkscape:window-maximized="0"
     inkscape:current-layer="svg2" /><metadata
     id="metadata13"><rdf:RDF><cc:Work
         rdf:about=""><dc:format>image/svg+xml</dc:format><dc:type
           rdf:resource="http://purl.org/dc/dcmitype/StillImage" /><dc:title></dc:title></cc:Work></rdf:RDF></metadata><defs
     id="defs11" /><rect
     width="11"
     height="11"
     x="0"
     y="0"
     id="canvas"
     style="visibility:hidden;fill:none;stroke:none" /><path
     d="M 4.7142857,2.3571429 C 2.3571429,2.3571429 0,3.9285714 0,5.5 0,7.0714286 2.3571429,8.642857 4.7142857,8.642857 6.4768858,8.624934 8.642857,7.0714286 8.642857,5.5 8.642857,3.9285714 6.2857143,2.3571429 4.7142857,2.3571429 Z M 8.642857,5.5 C 8.642857,7.0714286 9.927017,8.0725944 11,8.642857 11,7.0714286 10.47619,6.547619 10.214286,5.5 10.47619,4.452381 11,3.9285714 11,2.3571429 10.034743,2.8795274 8.642857,3.9285714 8.642857,5.5 Z M 2.3433315,3.9285714 a 0.78571429,0.78571429 0 0 1 0.7995256,0.7672991 l 0,0.018415 A 0.78571429,0.78571429 0 0 1 2.3617467,5.5 0.78571429,0.78571429 0 0 1 1.5714286,4.7234933 0.78571429,0.78571429 0 0 1 2.3433315,3.9285714 Z"
     style="fill:#000000;fill-opacity:1;fill-rule:evenodd;stroke:none;stroke-width:1px;stroke-linecap:butt;stroke-linejoin:miter;stroke-opacity:1"
     id="path4139"
     inkscape:connector-curvature="0" /></svg>

<svg xmlns="http://www.w3.org/2000/svg" height="11" width="11">
    <path visibility="hidden" fill="none" d="M0 0h11v11H0z"/>
    <path d="M4.714 2.357C2.357 2.357 0 3.93 0 5.5c0 1.571 2.357 3.143 4.714 3.143C6.477 8.625 8.643 7.07 8.643 5.5c0-1.571-2.357-3.143-3.929-3.143zM8.643 5.5c0 1.571 1.284 2.573 2.357 3.143 0-1.572-.524-2.095-.786-3.143.262-1.048.786-1.571.786-3.143-.965.523-2.357 1.572-2.357 3.143zm-6.3-1.571a.786.786 0 0 1 .8.767v.018a.786.786 0 0 1-.781.786.786.786 0 0 1-.79-.777.786.786 0 0 1 .771-.794z" fill-rule="evenodd"/>
</svg>
